mimes/32/image-x-generic.svg

<?xml version="1.0" encoding="UTF-8" standalone="no"?>
<svg
   xmlns:dc="http://purl.org/dc/elements/1.1/"
   xmlns:cc="http://creativecommons.org/ns#"
   xmlns:rdf="http://www.w3.org/1999/02/22-rdf-syntax-ns#"
   xmlns:svg="http://www.w3.org/2000/svg"
   xmlns="http://www.w3.org/2000/svg"
   xmlns:xlink="http://www.w3.org/1999/xlink"
   xmlns:sodipodi="http://sodipodi.sourceforge.net/DTD/sodipodi-0.dtd"
   xmlns:inkscape="http://www.inkscape.org/namespaces/inkscape"
   version="1.0"
   width="32"
   height="32"
   id="svg2526"
   inkscape:version="0.91 r13725"
   sodipodi:docname="image-x-generic.svg">
  <sodipodi:namedview
     pagecolor="#ffffff"
     bordercolor="#666666"
     borderopacity="1"
     objecttolerance="10"
     gridtolerance="10"
     guidetolerance="10"
     inkscape:pageopacity="0"
     inkscape:pageshadow="2"
     inkscape:window-width="640"
     inkscape:window-height="480"
     id="namedview1983" />
  <metadata
     id="metadata58">
    <rdf:RDF>
      <cc:Work
         rdf:about="">
        <dc:format>image/svg+xml</dc:format>
        <dc:type
           rdf:resource="http://purl.org/dc/dcmitype/StillImage" />
        <dc:title />
      </cc:Work>
    </rdf:RDF>
  </metadata>
  <defs
     id="defs2528">
    <linearGradient
       id="linearGradient5060">
      <stop
         id="stop5062"
         style="stop-color:#000000;stop-opacity:1"
         offset="0" />
      <stop
         id="stop5064"
         style="stop-color:#000000;stop-opacity:0"
         offset="1" />
    </linearGradient>
    <linearGradient
       id="linearGradient5048">
      <stop
         id="stop5050"
         style="stop-color:#000000;stop-opacity:0"
         offset="0" />
      <stop
         id="stop5056"
         style="stop-color:#000000;stop-opacity:1"
         offset="0.5" />
      <stop
         id="stop5052"
         style="stop-color:#000000;stop-opacity:0"
         offset="1" />
    </linearGradient>
    <linearGradient
       x1="302.85715"
       y1="366.64789"
       x2="302.85715"
       y2="609.50507"
       id="linearGradient3188"
       xlink:href="#linearGradient5048"
       gradientUnits="userSpaceOnUse"
       gradientTransform="matrix(0.08449704,0,0,0.01235294,-6.5396456,38.470822)" />
    <radialGradient
       cx="605.71429"
       cy="486.64789"
       r="117.14286"
       fx="605.71429"
       fy="486.64789"
       id="radialGradient3190"
       xlink:href="#linearGradient5060"
       gradientUnits="userSpaceOnUse"
       gradientTransform="matrix(-0.0289166,0,0,0.01235294,21.026894,38.470848)" />
    <radialGradient
       cx="605.71429"
       cy="486.64789"
       r="117.14286"
       fx="605.71429"
       fy="486.64789"
       id="radialGradient3192"
       xlink:href="#linearGradient5060"
       gradientUnits="userSpaceOnUse"
       gradientTransform="matrix(0.02891661,0,0,0.01235294,26.973101,38.470848)" />
    <linearGradient
       id="linearGradient3104-6">
      <stop
         id="stop3106-3"
         style="stop-color:#000000;stop-opacity:0.31782946"
         offset="0" />
      <stop
         id="stop3108-9"
         style="stop-color:#000000;stop-opacity:0.24031007"
         offset="1" />
    </linearGradient>
    <linearGradient
       id="linearGradient3610-302-9-7-2">
      <stop
         offset="0"
         style="stop-color:#1d1d1d;stop-opacity:1"
         id="stop3796-3-8-61" />
      <stop
         offset="1"
         style="stop-color:#000000;stop-opacity:1"
         id="stop3798-1-9-2" />
    </linearGradient>
    <linearGradient
       id="linearGradient4785-3-5">
      <stop
         offset="0"
         style="stop-color:#262626;stop-opacity:1"
         id="stop4787-5-0" />
      <stop
         offset="1"
         style="stop-color:#4d4d4d;stop-opacity:1"
         id="stop4789-1-3" />
    </linearGradient>
    <linearGradient
       id="linearGradient3977-8">
      <stop
         offset="0"
         style="stop-color:#ffffff;stop-opacity:1"
         id="stop3979-4" />
      <stop
         offset="0.03626217"
         style="stop-color:#ffffff;stop-opacity:0.23529412"
         id="stop3981-7" />
      <stop
         offset="0.95056331"
         style="stop-color:#ffffff;stop-opacity:0.15686275"
         id="stop3983-56" />
      <stop
         offset="1"
         style="stop-color:#ffffff;stop-opacity:0.39215687"
         id="stop3985-7" />
    </linearGradient>
    <linearGradient
       id="linearGradient3600-7">
      <stop
         offset="0"
         style="stop-color:#f4f4f4;stop-opacity:1"
         id="stop3602-2" />
      <stop
         offset="1"
         style="stop-color:#dbdbdb;stop-opacity:1"
         id="stop3604-8" />
    </linearGradient>
    <linearGradient
       xlink:href="#linearGradient3104-6"
       id="linearGradient3285"
       gradientUnits="userSpaceOnUse"
       gradientTransform="matrix(0.71521168,0,0,0.50836186,47.363354,2.5242162)"
       x1="-51.786404"
       y1="50.786446"
       x2="-51.786404"
       y2="2.9062471" />
    <linearGradient
       xlink:href="#linearGradient4785-3-5"
       id="linearGradient3291"
       gradientUnits="userSpaceOnUse"
       gradientTransform="matrix(-0.33920298,4.8907845e-4,0.00125558,-0.26704325,38.935255,32.236618)"
       x1="45.414135"
       y1="15.270427"
       x2="45.567307"
       y2="96.25267" />
    <linearGradient
       xlink:href="#linearGradient3610-302-9-7-2"
       id="linearGradient3293"
       gradientUnits="userSpaceOnUse"
       gradientTransform="matrix(-0.7700459,0.00111029,0.00366806,-0.78014046,-2.4326501,-4.1078402)"
       x1="-24.032034"
       y1="-13.090545"
       x2="-24.097931"
       y2="-40.163883" />
    <linearGradient
       xlink:href="#linearGradient3977-8"
       id="linearGradient3296"
       gradientUnits="userSpaceOnUse"
       gradientTransform="matrix(0.7837838,0,0,0.6216216,-2.8108094,2.081085)"
       x1="23.99999"
       y1="5.5641499"
       x2="23.99999"
       y2="43" />
    <linearGradient
       xlink:href="#linearGradient3600-7"
       id="linearGradient3299"
       gradientUnits="userSpaceOnUse"
       gradientTransform="matrix(0.85714084,0,0,0.52148059,-4.5713851,3.6844634)"
       x1="25.132275"
       y1="0.98520643"
       x2="25.132275"
       y2="47.013336" />
  </defs>
  <g
     transform="matrix(0.6666592,0,0,1.3333333,1.792e-4,-30.333332)"
     id="g3257"
     style="opacity:0.4">
    <rect
       width="40.799999"
       height="2.9999998"
       x="3.5999999"
       y="43"
       id="rect2879"
       style="fill:url(#linearGradient3188);fill-opacity:1;fill-rule:nonzero;stroke:none;stroke-width:1;marker:none;visibility:visible;display:inline;overflow:visible" />
    <path
       d="m 3.6,43.00013 c 0,0 0,2.999835 0,2.999835 C 2.1108662,46.005612 0,45.327854 0,44.499854 0,43.671856 1.6617608,43.000131 3.6,43.00013 z"
       id="path2881"
       style="fill:url(#radialGradient3190);fill-opacity:1;fill-rule:nonzero;stroke:none;stroke-width:1;marker:none;visibility:visible;display:inline;overflow:visible" />
    <path
       d="m 44.4,43.00013 c 0,0 0,2.999835 0,2.999835 1.489133,0.0056 3.6,-0.672111 3.6,-1.500111 0,-0.827998 -1.661761,-1.499723 -3.6,-1.499724 z"
       id="path2883"
       style="fill:url(#radialGradient3192);fill-opacity:1;fill-rule:nonzero;stroke:none;stroke-width:1;marker:none;visibility:visible;display:inline;overflow:visible" />
  </g>
  <path
     d="m 0.99999685,4.9999981 c 6.87452305,0 29.99996415,0.00153 29.99996415,0.00153 l 3.6e-5,23.9984699 c 0,0 -19.999999,0 -30.00000015,0 0,-8 0,-16 0,-24.0000001 z"
     id="path4160"
     style="fill:url(#linearGradient3299);fill-opacity:1;stroke:none;display:inline" />
  <path
     d="m 30.499996,28.499998 -28.9999985,0 0,-23 28.9999985,0 z"
     id="rect6741-1"
     style="fill:none;stroke:url(#linearGradient3296);stroke-width:0.99999994;stroke-linecap:round;stroke-linejoin:round;stroke-miterlimit:4;stroke-opacity:1;stroke-dasharray:none;stroke-dashoffset:0" />
  <path
     style="fill:url(#linearGradient3291);fill-opacity:1;stroke:url(#linearGradient3293);stroke-width:1.0000006;stroke-linecap:round;stroke-linejoin:miter;stroke-miterlimit:4;stroke-opacity:1;stroke-dasharray:none"
     d="m 29.499997,27.499997 -27.0000001,0 2e-6,-20.9999986 26.9999951,2e-6 z"
     id="rect3582-50-4-3" />
  <path
     d="m 0.4999577,4.499957 c 7.103685,0 31.0000463,0.00174 31.0000463,0.00174 l 3.2e-5,24.998342 c 0,0 -20.666718,0 -31.0000783,0 0,-8.33337 0,-16.666657 0,-24.9999301 z"
     id="path4160-6-1"
     style="fill:none;stroke:url(#linearGradient3285);stroke-width:0.99992174;stroke-linecap:butt;stroke-linejoin:round;stroke-miterlimit:4;stroke-opacity:1;stroke-dasharray:none;stroke-dashoffset:0;display:inline" />
  <path
     style="opacity:0.14999999999999999;color:#000000;fill:#000000;fill-opacity:1;fill-rule:nonzero;stroke:none;stroke-width:1.00000059999999991;marker:none;visibility:visible;display:inline;overflow:visible;enable-background:accumulate;stroke-linecap:round;stroke-linejoin:miter;stroke-miterlimit:4;stroke-opacity:1;stroke-dasharray:none;stroke-dashoffset:0"
     d="M 14.40625 10.9375 C 13.568502 10.9375 12.990866 11.562508 12.65625 12.21875 C 12.432869 12.65684 12.388762 13.228474 12.3125 13.78125 C 11.845313 13.513902 11.374751 13.185368 10.90625 13.09375 C 10.18678 12.953053 9.3197996 13.052072 8.8125 13.71875 C 8.3050526 14.38562 8.4645942 15.211374 8.78125 15.875 C 9.0060674 16.346157 9.451213 16.73908 9.875 17.15625 C 9.316947 17.394402 8.7618213 17.63318 8.375 18 C 7.8373964 18.509806 7.390618 19.249858 7.625 20.0625 C 7.8599767 20.877205 8.6195548 21.220979 9.34375 21.34375 C 9.5882645 21.385202 9.8931843 21.283569 10.15625 21.28125 C 7.8795378 23.970756 6.2895551 27.226468 6.15625 27.5 L 9 27.5 C 9.4782143 26.528517 10.226431 25.195914 11.125 23.84375 C 11.31261 24.230292 11.578962 24.553826 12.03125 24.71875 C 12.824208 25.007899 13.561476 24.634154 14.09375 24.125 C 14.39063 23.841016 14.552726 23.363103 14.78125 22.96875 C 15.063465 23.32044 15.323709 23.734397 15.65625 23.96875 C 16.255151 24.390816 17.046203 24.688162 17.78125 24.28125 C 18.519586 23.872517 18.717778 23.047552 18.6875 22.3125 C 18.671985 21.935848 18.465478 21.520884 18.34375 21.125 C 18.743664 21.146662 19.17225 21.260472 19.53125 21.1875 C 20.249251 21.041555 21.008366 20.659053 21.21875 19.84375 C 21.429661 19.026397 20.959876 18.298686 20.40625 17.8125 C 20.162003 17.598006 19.778424 17.510225 19.46875 17.34375 C 19.723947 17.09667 20.073509 16.901193 20.25 16.625 C 20.647037 16.003673 20.914869 15.22656 20.5 14.5 C 20.082859 13.769461 19.233562 13.580565 18.5 13.625 C 17.878118 13.66267 17.211782 13.921394 16.5625 14.25 C 16.524796 13.502655 16.406473 12.788147 16.125 12.21875 C 15.800359 11.562028 15.243998 10.9375 14.40625 10.9375 z M 14.4375 17.28125 C 14.931062 17.28125 15.34375 17.684432 15.34375 18.1875 C 15.34375 18.690568 14.931062 19.09375 14.4375 19.09375 C 13.943938 19.09375 13.5625 18.708805 13.5625 18.1875 C 13.5625 17.666195 13.943938 17.28125 14.4375 17.28125 z M 18.40625 18.25 L 18.40625 18.28125 C 18.083363 18.464462 17.800058 18.340396 17.8125 18.34375 C 17.823276 18.346655 18.119888 18.356992 18.40625 18.25 z "
     id="path4128" />
  <path
     d="m 14.399043,11.768756 c -0.764699,0 -1.38461,1.253602 -1.38461,2.799999 0,0.257298 0.01113,0.50709 0.04327,0.743751 -0.164343,-0.167885 -0.320007,-0.348141 -0.519229,-0.503126 -1.212141,-0.942981 -2.584162,-1.203432 -3.05047,-0.590624 -0.466308,0.612806 0.150835,1.878893 1.362976,2.821874 0.229996,0.178925 0.458739,0.308604 0.692305,0.4375 -0.264587,0.0342 -0.542765,0.09263 -0.822112,0.175001 -1.468239,0.432933 -2.485715,1.40147 -2.271627,2.143749 0.214088,0.74228 1.582231,0.979809 3.05047,0.546875 0.275294,-0.08117 0.540434,-0.171466 0.778843,-0.284375 -0.0582,0.107121 -0.12041,0.212137 -0.173076,0.328125 C 9.220693,22.991055 6.84859,27.97813 6.84859,27.97813 L 7.843779,28 c 0.540402,-1.311782 1.876834,-4.192316 3.937486,-6.60625 -0.291654,1.226854 -0.103021,2.3106 0.519229,2.5375 0.719349,0.262308 1.731144,-0.710934 2.249992,-2.165625 0.04667,-0.130846 0.07244,-0.264696 0.108172,-0.39375 0.05604,0.124857 0.105421,0.246929 0.173077,0.371875 0.73447,1.356407 1.882127,2.165067 2.552875,1.79375 0.670748,-0.371317 0.604663,-1.771719 -0.129807,-3.128125 -0.0419,-0.07737 -0.08544,-0.145118 -0.129807,-0.218749 0.08137,0.02558 0.153628,0.04337 0.23798,0.06563 1.479857,0.390403 2.835779,0.113778 3.028835,-0.634374 0.193055,-0.748154 -0.856673,-1.665847 -2.33653,-2.056251 -0.02267,-0.006 -0.0423,-0.01621 -0.0649,-0.02187 0.01995,-0.01132 0.04498,-0.01024 0.0649,-0.02187 1.324497,-0.773198 2.091478,-1.95539 1.709128,-2.624999 -0.38235,-0.66961 -1.769241,-0.576324 -3.093739,0.196875 -0.424253,0.247664 -0.77014,0.531698 -1.060092,0.83125 0.109961,-0.401454 0.173076,-0.864823 0.173076,-1.356251 0,-1.546397 -0.619911,-2.799999 -1.38461,-2.799999 z m 0.04327,4.68125 c 0.955874,0 1.730763,0.7835 1.730763,1.749999 0,0.966499 -0.774889,1.75 -1.730763,1.75 -0.955874,0 -1.730763,-0.783501 -1.730763,-1.75 0,-0.966499 0.774889,-1.749999 1.730763,-1.749999 z"
     id="path4019-4"
     style="fill:#000000;fill-opacity:1;stroke:none;opacity:0.29999999999999999;color:#000000;fill-rule:nonzero;stroke-width:1;marker:none;visibility:visible;display:inline;overflow:visible;enable-background:accumulate" />
  <path
     d="m 14.399043,10.768756 c -0.764699,0 -1.38461,1.253602 -1.38461,2.799999 0,0.257298 0.01113,0.50709 0.04327,0.743751 -0.164343,-0.167885 -0.320007,-0.348141 -0.519229,-0.503126 -1.212141,-0.942981 -2.584162,-1.203432 -3.05047,-0.590624 -0.466308,0.612806 0.150835,1.878893 1.362976,2.821874 0.229996,0.178925 0.458739,0.308604 0.692305,0.4375 -0.264587,0.0342 -0.542765,0.09263 -0.822112,0.175001 -1.468239,0.432933 -2.485715,1.40147 -2.271627,2.143749 0.214088,0.74228 1.582231,0.979809 3.05047,0.546875 0.275294,-0.08117 0.540434,-0.171466 0.778843,-0.284375 -0.0582,0.107121 -0.12041,0.212137 -0.173076,0.328125 C 9.220693,21.991055 6.84859,26.97813 6.84859,26.97813 L 7.843779,27 c 0.540402,-1.311782 1.876834,-4.192316 3.937486,-6.60625 -0.291654,1.226854 -0.103021,2.3106 0.519229,2.5375 0.719349,0.262308 1.731144,-0.710934 2.249992,-2.165625 0.04667,-0.130846 0.07244,-0.264696 0.108172,-0.39375 0.05604,0.124857 0.105421,0.246929 0.173077,0.371875 0.73447,1.356407 1.882127,2.165067 2.552875,1.79375 0.670748,-0.371317 0.604663,-1.771719 -0.129807,-3.128125 -0.0419,-0.07737 -0.08544,-0.145118 -0.129807,-0.218749 0.08137,0.02558 0.153628,0.04337 0.23798,0.06563 1.479857,0.390403 2.835779,0.113778 3.028835,-0.634374 0.193055,-0.748154 -0.856673,-1.665847 -2.33653,-2.056251 -0.02267,-0.006 -0.0423,-0.01621 -0.0649,-0.02187 0.01995,-0.01132 0.04498,-0.01024 0.0649,-0.02187 1.324497,-0.773198 2.091478,-1.95539 1.709128,-2.624999 -0.38235,-0.66961 -1.769241,-0.576324 -3.093739,0.196875 -0.424253,0.247664 -0.77014,0.531698 -1.060092,0.83125 0.109961,-0.401454 0.173076,-0.864823 0.173076,-1.356251 0,-1.546397 -0.619911,-2.799999 -1.38461,-2.799999 z m 0.04327,4.68125 c 0.955874,0 1.730763,0.7835 1.730763,1.749999 0,0.966499 -0.774889,1.75 -1.730763,1.75 -0.955874,0 -1.730763,-0.783501 -1.730763,-1.75 0,-0.966499 0.774889,-1.749999 1.730763,-1.749999 z"
     id="path4019"
     style="fill:#d2d2d2;fill-opacity:1;stroke:none" />
</svg>

<svg xmlns="http://www.w3.org/2000/svg" xmlns:xlink="http://www.w3.org/1999/xlink" viewBox="0 0 32 32"><defs><linearGradient id="b"><stop offset="0"/><stop offset="1" stop-opacity="0"/></linearGradient><linearGradient id="a"><stop offset="0" stop-opacity="0"/><stop offset=".5"/><stop offset="1" stop-opacity="0"/></linearGradient><linearGradient x1="302.857" y1="366.648" x2="302.857" y2="609.505" id="h" xlink:href="#a" gradientUnits="userSpaceOnUse" gradientTransform="matrix(.0845 0 0 .01235 -6.54 38.47)"/><radialGradient cx="605.714" cy="486.648" r="117.143" fx="605.714" fy="486.648" id="i" xlink:href="#b" gradientUnits="userSpaceOnUse" gradientTransform="matrix(-.02892 0 0 .01235 21.027 38.47)"/><radialGradient cx="605.714" cy="486.648" r="117.143" fx="605.714" fy="486.648" id="j" xlink:href="#b" gradientUnits="userSpaceOnUse" gradientTransform="matrix(.02892 0 0 .01235 26.973 38.47)"/><linearGradient id="c"><stop offset="0" stop-opacity=".318"/><stop offset="1" stop-opacity=".24"/></linearGradient><linearGradient id="e"><stop offset="0" stop-color="#1d1d1d"/><stop offset="1"/></linearGradient><linearGradient id="d"><stop offset="0" stop-color="#262626"/><stop offset="1" stop-color="#4d4d4d"/></linearGradient><linearGradient id="f"><stop offset="0" stop-color="#fff"/><stop offset=".036" stop-color="#fff" stop-opacity=".235"/><stop offset=".951" stop-color="#fff" stop-opacity=".157"/><stop offset="1" stop-color="#fff" stop-opacity=".392"/></linearGradient><linearGradient id="g"><stop offset="0" stop-color="#f4f4f4"/><stop offset="1" stop-color="#dbdbdb"/></linearGradient><linearGradient xlink:href="#c" id="o" gradientUnits="userSpaceOnUse" gradientTransform="matrix(.7152 0 0 .50836 47.363 2.524)" x1="-51.786" y1="50.786" x2="-51.786" y2="2.906"/><linearGradient xlink:href="#d" id="m" gradientUnits="userSpaceOnUse" gradientTransform="matrix(-.3392 .0005 .00126 -.26704 38.935 32.237)" x1="45.414" y1="15.27" x2="45.567" y2="96.253"/><linearGradient xlink:href="#e" id="n" gradientUnits="userSpaceOnUse" gradientTransform="matrix(-.77005 .0011 .00367 -.78014 -2.433 -4.108)" x1="-24.032" y1="-13.091" x2="-24.098" y2="-40.164"/><linearGradient xlink:href="#f" id="l" gradientUnits="userSpaceOnUse" gradientTransform="matrix(.78378 0 0 .62162 -2.81 2.08)" x1="24" y1="5.564" x2="24" y2="43"/><linearGradient xlink:href="#g" id="k" gradientUnits="userSpaceOnUse" gradientTransform="matrix(.85714 0 0 .52148 -4.57 3.684)" x1="25.132" y1=".985" x2="25.132" y2="47.013"/></defs><g opacity=".4"><path fill="url(#h)" overflow="visible" d="M3.6 43h40.8v3H3.6z" transform="matrix(.66666 0 0 1.33333 0 -30.333)"/><path d="M3.6 43v3c-1.49.006-3.6-.672-3.6-1.5S1.662 43 3.6 43z" fill="url(#i)" overflow="visible" transform="matrix(.66666 0 0 1.33333 0 -30.333)"/><path d="M44.4 43v3c1.49.006 3.6-.672 3.6-1.5S46.338 43 44.4 43z" fill="url(#j)" overflow="visible" transform="matrix(.66666 0 0 1.33333 0 -30.333)"/></g><path d="M1 5l30 .002V29H1V5z" fill="url(#k)"/><path d="M30.5 28.5h-29v-23h29z" fill="none" stroke="url(#l)" stroke-linecap="round" stroke-linejoin="round"/><path d="M29.5 27.5h-27v-21h27z" fill="url(#m)" stroke="url(#n)" stroke-linecap="round"/><path d="M.5 4.5l31 .002V29.5H.5v-25z" fill="none" stroke="url(#o)" stroke-linejoin="round"/><path d="M14.406 10.938c-.837 0-1.415.625-1.75 1.28-.223.44-.267 1.01-.344 1.563-.467-.26-.937-.59-1.406-.68-.72-.14-1.586-.04-2.094.628-.507.667-.347 1.49-.03 2.156.224.47.67.864 1.093 1.28-.558.24-1.113.478-1.5.845-.538.51-.984 1.25-.75 2.063.235.814.995 1.158 1.72 1.28.243.04.548-.06.81-.062-2.275 2.69-3.865 5.948-4 6.22H9a34.345 34.345 0 0 1 2.125-3.654c.188.388.454.71.906.877.8.287 1.53-.087 2.07-.596.3-.283.46-.76.69-1.155.283.35.544.763.876 1 .6.42 1.39.717 2.125.31.74-.41.938-1.233.907-1.97-.013-.375-.22-.79-.34-1.186.4.02.827.134 1.186.062.72-.146 1.48-.53 1.69-1.344.21-.817-.26-1.544-.813-2.03-.245-.214-.63-.3-.938-.468.255-.25.605-.444.78-.72.398-.62.666-1.4.25-2.125-.416-.73-1.265-.92-2-.875-.62.037-1.287.295-1.937.624-.037-.75-.156-1.464-.437-2.03-.326-.66-.88-1.285-1.72-1.285zm.03 6.343a.91.91 0 0 1 .908.91.91.91 0 0 1-.906.91c-.494 0-.876-.382-.876-.904 0-.52.382-.906.876-.906zm3.97.97v.03c-.323.19-.606.06-.593.07.01.006.307.016.593-.09z" opacity=".15" color="#000" overflow="visible"/><path d="M14.4 11.77c-.766 0-1.386 1.252-1.386 2.8 0 .256.012.506.044.743-.165-.168-.32-.35-.52-.504-1.212-.95-2.584-1.21-3.05-.59-.466.61.15 1.87 1.363 2.82a4 4 0 0 0 .7.43 5.353 5.353 0 0 0-.82.174c-1.467.433-2.485 1.402-2.27 2.144.214.742 1.58.98 3.05.547.275-.08.54-.17.78-.285-.06.107-.122.212-.174.328-2.885 2.605-5.257 7.59-5.257 7.59l.994.024c.54-1.312 1.878-4.192 3.938-6.606-.29 1.23-.1 2.31.52 2.54.72.26 1.733-.71 2.25-2.167.048-.13.074-.264.11-.393.056.124.105.246.173.37.733 1.357 1.88 2.166 2.552 1.795.67-.37.602-1.77-.13-3.13-.044-.075-.088-.143-.13-.216.08.023.152.04.236.063 1.48.39 2.837.113 3.03-.635.193-.748-.857-1.666-2.337-2.056-.023-.006-.043-.017-.066-.02.02-.014.045-.01.065-.024 1.323-.77 2.09-1.953 1.71-2.623-.385-.67-1.77-.576-3.096.197-.425.25-.77.53-1.06.83.11-.4.173-.862.173-1.353 0-1.55-.62-2.8-1.386-2.8zm.042 4.68c.956 0 1.73.784 1.73 1.75a1.74 1.74 0 0 1-1.73 1.75 1.74 1.74 0 0 1-1.73-1.75c0-.966.774-1.75 1.73-1.75z" opacity=".3" color="#000" overflow="visible"/><path d="M14.4 10.77c-.766 0-1.386 1.252-1.386 2.8 0 .256.012.506.044.743-.165-.168-.32-.35-.52-.504-1.212-.95-2.584-1.21-3.05-.59-.466.61.15 1.87 1.363 2.82a4 4 0 0 0 .7.43 5.353 5.353 0 0 0-.82.174c-1.467.433-2.485 1.402-2.27 2.144.214.742 1.58.98 3.05.547.275-.08.54-.17.78-.285-.06.107-.122.212-.174.328-2.885 2.605-5.257 7.59-5.257 7.59l.994.024c.54-1.312 1.878-4.192 3.938-6.606-.29 1.23-.1 2.31.52 2.54.72.26 1.733-.71 2.25-2.167.048-.13.074-.264.11-.393.056.124.105.246.173.37.733 1.357 1.88 2.166 2.552 1.795.67-.37.602-1.77-.13-3.13-.044-.075-.088-.143-.13-.216.08.023.152.04.236.063 1.48.39 2.837.113 3.03-.635.193-.748-.857-1.666-2.337-2.056-.023-.006-.043-.017-.066-.02.02-.014.045-.01.065-.024 1.323-.77 2.09-1.953 1.71-2.623-.385-.67-1.77-.576-3.096.197-.425.25-.77.53-1.06.83.11-.4.173-.862.173-1.353 0-1.55-.62-2.8-1.386-2.8zm.042 4.68c.956 0 1.73.784 1.73 1.75a1.74 1.74 0 0 1-1.73 1.75 1.74 1.74 0 0 1-1.73-1.75c0-.966.774-1.75 1.73-1.75z" fill="#d2d2d2"/></svg>
